contributed-vectors/de_lijn.svg

<?xml version="1.0" encoding="UTF-8" standalone="no"?>
<svg
   viewBox="0 0 192 192"
   version="1.1"
   id="svg16"
   sodipodi:docname="de_lijn.svg"
   inkscape:export-filename="de_lijn.png"
   inkscape:export-xdpi="96"
   inkscape:export-ydpi="96"
   inkscape:version="1.1.1 (3bf5ae0d25, 2021-09-20)"
   xmlns:inkscape="http://www.inkscape.org/namespaces/inkscape"
   xmlns:sodipodi="http://sodipodi.sourceforge.net/DTD/sodipodi-0.dtd"
   xmlns="http://www.w3.org/2000/svg"
   xmlns:svg="http://www.w3.org/2000/svg">
  <sodipodi:namedview
     id="namedview15"
     pagecolor="#505050"
     bordercolor="#eeeeee"
     borderopacity="1"
     inkscape:pageshadow="0"
     inkscape:pageopacity="0"
     inkscape:pagecheckerboard="0"
     showgrid="false"
     inkscape:zoom="3.4739583"
     inkscape:cx="84.053973"
     inkscape:cy="96"
     inkscape:window-width="1884"
     inkscape:window-height="1055"
     inkscape:window-x="36"
     inkscape:window-y="0"
     inkscape:window-maximized="1"
     inkscape:current-layer="svg16" />
  <defs
     id="defs4">
    <style
       id="style2">.a{fill:none;stroke:#b1b5bd;stroke-linecap:round;stroke-linejoin:round;isolation:isolate;opacity:0.63;}</style>
  </defs>
  <rect
     class="a"
     x="20"
     y="20"
     width="152"
     height="152"
     rx="10"
     id="rect6"
     style="display:inline;fill:#f9de81;fill-opacity:1;stroke:none;opacity:1" />
  <path
     id="rect6-2"
     style="display:inline;opacity:1;isolation:isolate;fill:#ffffff;fill-opacity:1;stroke:none;stroke-linecap:round;stroke-linejoin:round"
     class="a"
     d="m 30,20 c -5.54,0 -10,4.46 -10,10 v 74.52594 c 0.360633,-0.0391 0.712633,-0.10754 1.083984,-0.10938 H 172 V 30 c 0,-5.54 -4.46,-10 -10,-10 z" />
  <g
     aria-label="LIJN"
     transform="matrix(1.0172704,0,-0.19150789,0.98302278,0,0)"
     id="text2895"
     style="font-size:38.5248px;line-height:1.25;font-family:'DejaVu Math TeX Gyre';-inkscape-font-specification:'DejaVu Math TeX Gyre';fill:#56595b;stroke-width:0.96312">
    <path
       d="M 68.524396,91.682563 V 69.193711 h -7.367868 v 28.8936 h 16.565664 v -6.404748 z"
       style="font-weight:900;font-family:'Now Alt';-inkscape-font-specification:'Now Alt Heavy'"
       id="path4199" />
    <path
       d="m 76.75397,89.447012 h 7.367868 L 84.047348,69.193707 H 76.67948 Z"
       style="font-weight:900;font-size:38.5248px;line-height:1.25;font-family:'Now Alt';-inkscape-font-specification:'Now Alt Heavy';fill:#56595b;stroke-width:0.96312"
       id="path4201-3" />
    <path
       d="M 105.53328,69.193711 H 88.823152 v 6.404748 h 9.342264 v 13.96524 c 0,1.396524 -1.107588,2.552268 -2.455956,2.552268 -1.2039,0 -2.16702,-0.914964 -2.359644,-2.16702 l -7.271556,2.215176 c 0.674184,3.900636 3.948792,6.308436 9.6312,6.308436 6.4529,0 9.82382,-3.081984 9.82382,-7.94574 z"
       style="font-weight:900;font-family:'Now Alt';-inkscape-font-specification:'Now Alt Heavy'"
       id="path4203" />
    <path
       d="M 131.20043,69.193711 V 86.866963 L 118.15016,69.193711 h -7.70496 v 28.8936 h 7.36786 V 80.365903 l 13.00212,17.721408 h 7.75312 v -28.8936 z"
       style="font-weight:900;font-family:'Now Alt';-inkscape-font-specification:'Now Alt Heavy'"
       id="path4205" />
  </g>
  <text
     xml:space="preserve"
     style="font-size:18.4319px;line-height:1.25;font-family:'DejaVu Math TeX Gyre';-inkscape-font-specification:'DejaVu Math TeX Gyre';fill:#56595b;stroke-width:1.12758"
     x="59.735317"
     y="66.94503"
     id="text5088"
     transform="matrix(1.025496,0,-0.19902659,0.97513791,0,0)"><tspan
       id="tspan5086"
       x="59.735317"
       y="66.94503"
       style="font-style:normal;font-variant:normal;font-weight:bold;font-stretch:normal;font-size:18.4319px;font-family:'Now Alt';-inkscape-font-specification:'Now Alt Bold';fill:#56595b;stroke-width:1.12758">DE</tspan></text>
  <path
     id="rect17488"
     style="fill:#728dbe;stroke-width:1.9358"
     d="M 80.095703 52.318359 L 77.832031 64.210938 L 105.25781 64.210938 L 107.52344 52.318359 L 80.095703 52.318359 z M 109.48438 52.318359 L 107.2207 64.210938 L 128.81836 64.210938 L 131.08398 52.318359 L 109.48438 52.318359 z M 133.04492 52.318359 L 130.7793 64.210938 L 141.80859 64.210938 L 144.07422 52.318359 L 133.04492 52.318359 z M 146.03516 52.318359 L 143.76953 64.210938 L 150.10352 64.210938 L 152.36719 52.318359 L 146.03516 52.318359 z M 154.33008 52.318359 L 152.06445 64.210938 L 156.16602 64.210938 L 158.43164 52.318359 L 154.33008 52.318359 z M 160.39453 52.318359 L 158.12891 64.210938 L 161.07812 64.210938 L 163.3418 52.318359 L 160.39453 52.318359 z M 165.30469 52.318359 L 163.04102 64.210938 L 164.51562 64.210938 L 166.78125 52.318359 L 165.30469 52.318359 z M 168.74414 52.318359 L 166.47852 64.210938 L 167.54102 64.210938 L 169.80664 52.318359 L 168.74414 52.318359 z M 171.76758 52.318359 L 169.50391 64.210938 L 169.82227 64.210938 L 172 52.777344 L 172 52.318359 L 171.76758 52.318359 z M 172 63.078125 L 171.78516 64.210938 L 172 64.210938 L 172 63.078125 z " />
</svg>

<svg xmlns="http://www.w3.org/2000/svg" id="svg16" version="1.1" viewBox="0 0 192 192"><defs id="defs4"><style id="style2">.a{fill:none;stroke:#b1b5bd;stroke-linecap:round;stroke-linejoin:round;isolation:isolate;opacity:.63}</style></defs><rect id="rect6" width="152" height="152" x="20" y="20" class="a" rx="10" style="display:inline;fill:#f9de81;fill-opacity:1;stroke:none;opacity:1"/><path id="rect6-2" d="M30 20c-5.54 0-10 4.46-10 10v74.526c.36-.04.713-.108 1.084-.11H172V30c0-5.54-4.46-10-10-10z" class="a" style="display:inline;opacity:1;isolation:isolate;fill:#fff;fill-opacity:1;stroke:none;stroke-linecap:round;stroke-linejoin:round"/><g id="text2895" aria-label="LIJN" style="font-size:38.5248px;line-height:1.25;font-family:&quot;DejaVu Math TeX Gyre&quot;;-inkscape-font-specification:&quot;DejaVu Math TeX Gyre&quot;;fill:#56595b;stroke-width:.96312" transform="matrix(1.01727 0 -.1915 .98302 0 0)"><path id="path4199" d="M68.524 91.683v-22.49h-7.367v28.894h16.565v-6.404z" style="font-weight:900;font-family:&quot;Now Alt&quot;;-inkscape-font-specification:&quot;Now Alt Heavy&quot;"/><path id="path4201-3" d="M76.754 89.447h7.368l-.075-20.253H76.68Z" style="font-weight:900;font-size:38.5248px;line-height:1.25;font-family:&quot;Now Alt&quot;;-inkscape-font-specification:&quot;Now Alt Heavy&quot;;fill:#56595b;stroke-width:.96312"/><path id="path4203" d="M105.533 69.194h-16.71v6.404h9.342v13.966c0 1.396-1.107 2.552-2.456 2.552-1.203 0-2.167-.915-2.36-2.167l-7.27 2.215c.673 3.9 3.948 6.309 9.63 6.309 6.453 0 9.824-3.082 9.824-7.946z" style="font-weight:900;font-family:&quot;Now Alt&quot;;-inkscape-font-specification:&quot;Now Alt Heavy&quot;"/><path id="path4205" d="M131.2 69.194v17.673l-13.05-17.673h-7.705v28.893h7.368V80.366l13.002 17.721h7.753V69.194z" style="font-weight:900;font-family:&quot;Now Alt&quot;;-inkscape-font-specification:&quot;Now Alt Heavy&quot;"/></g><text xml:space="preserve" id="text5088" x="59.735" y="66.945" style="font-size:18.4319px;line-height:1.25;font-family:&quot;DejaVu Math TeX Gyre&quot;;-inkscape-font-specification:&quot;DejaVu Math TeX Gyre&quot;;fill:#56595b;stroke-width:1.12758" transform="skewX(-11.536) scale(1.0255 .97513)"><tspan id="tspan5086" x="59.735" y="66.945" style="font-style:normal;font-variant:normal;font-weight:700;font-stretch:normal;font-size:18.4319px;font-family:&quot;Now Alt&quot;;-inkscape-font-specification:&quot;Now Alt Bold&quot;;fill:#56595b;stroke-width:1.12758">DE</tspan></text><path id="rect17488" d="m80.096 52.318-2.264 11.893h27.426l2.265-11.893H80.096zm29.388 0-2.263 11.893h21.597l2.266-11.893h-21.6zm23.56 0-2.265 11.893h11.03l2.265-11.893h-11.03zm12.991 0-2.265 11.893h6.334l2.263-11.893h-6.332zm8.295 0-2.266 11.893h4.102l2.266-11.893h-4.102zm6.065 0-2.266 11.893h2.95l2.263-11.893h-2.947zm4.91 0-2.264 11.893h1.475l2.265-11.893h-1.476zm3.44 0-2.266 11.893h1.062l2.266-11.893h-1.063zm3.023 0-2.264 11.893h.318L172 52.777v-.459h-.232zm.232 10.76-.215 1.133H172v-1.133z" style="fill:#728dbe;stroke-width:1.9358"/></svg>
